X: 202
T: Widow Dixon
%R: reel
Z: 2017 John Chambers <jc:trillian.mit.edu>
B: John Treat - "Gamut for the Fifes", 1779, p.10 #2
F: https://archive.org/details/GamutFortheFifes
M: C|
L: 1/8
K: G
% - - - - - - - - - - - - - - - - - - - - - - - - -
|:\
G2BG G2BG | ABcd cBAG |\
Bdgd Bdgd | ecAF G4 ::\
cBcd efge | edcB cBAG |\
g2dB g2dB | ecAF | G4 :|
% - - - - - - - - - - - - - - - - - - - - - - - - -
